apps/ui-icons/svgs/apps.svg

<svg viewBox="0 0 24 24" width="24" height="24"  fill="none" xmlns="http://www.w3.org/2000/svg">
<path fill-rule="evenodd" clip-rule="evenodd" d="M5 3C3.89543 3 3 3.89543 3 5V9C3 10.1046 3.89543 11 5 11H9C10.1046 11 11 10.1046 11 9V5C11 3.89543 10.1046 3 9 3H5ZM9 5H5V9H9V5Z" fill="#171D26"/>
<path d="M17 3C17.5523 3 18 3.44772 18 4V6H20C20.5523 6 21 6.44772 21 7C21 7.55228 20.5523 8 20 8H18V10C18 10.5523 17.5523 11 17 11C16.4477 11 16 10.5523 16 10V8H14C13.4477 8 13 7.55228 13 7C13 6.44771 13.4477 6 14 6H16V4C16 3.44772 16.4477 3 17 3Z" fill="#171D26"/>
<path fill-rule="evenodd" clip-rule="evenodd" d="M5 13C3.89543 13 3 13.8954 3 15V19C3 20.1046 3.89543 21 5 21H9C10.1046 21 11 20.1046 11 19V15C11 13.8954 10.1046 13 9 13H5ZM9 15H5V19H9V15Z" fill="#171D26"/>
<path fill-rule="evenodd" clip-rule="evenodd" d="M13 15C13 13.8954 13.8954 13 15 13H19C20.1046 13 21 13.8954 21 15V19C21 20.1046 20.1046 21 19 21H15C13.8954 21 13 20.1046 13 19V15ZM15 19V15H19V19H15Z" fill="#171D26"/>
</svg>

<svg xmlns="http://www.w3.org/2000/svg" width="24" height="24" fill="none" viewBox="0 0 24 24">
  <path fill="#171D26" fill-rule="evenodd" d="M5 3a2 2 0 0 0-2 2v4a2 2 0 0 0 2 2h4a2 2 0 0 0 2-2V5a2 2 0 0 0-2-2H5Zm4 2H5v4h4V5Z" clip-rule="evenodd"/>
  <path fill="#171D26" d="M17 3a1 1 0 0 1 1 1v2h2a1 1 0 1 1 0 2h-2v2a1 1 0 1 1-2 0V8h-2a1 1 0 1 1 0-2h2V4a1 1 0 0 1 1-1Z"/>
  <path fill="#171D26" fill-rule="evenodd" d="M5 13a2 2 0 0 0-2 2v4a2 2 0 0 0 2 2h4a2 2 0 0 0 2-2v-4a2 2 0 0 0-2-2H5Zm4 2H5v4h4v-4Zm4 0a2 2 0 0 1 2-2h4a2 2 0 0 1 2 2v4a2 2 0 0 1-2 2h-4a2 2 0 0 1-2-2v-4Zm2 4v-4h4v4h-4Z" clip-rule="evenodd"/>
</svg>
